web/ui/src/components/theme/workflow/svgs/contraction.svg

<?xml version="1.0" encoding="UTF-8"?>
<svg width="24px" height="24px" viewBox="0 0 24 24" version="1.1" xmlns="http://www.w3.org/2000/svg" xmlns:xlink="http://www.w3.org/1999/xlink">
    <title>编组 10</title>
    <g id="页面-1" stroke="none" stroke-width="1" fill="none" fill-rule="evenodd">
        <g id="建木CI-图形编辑器-节点参数配置（先选版本）mvn_action弹窗" transform="translate(-1505.000000, -173.000000)" fill-rule="nonzero">
            <g id="编组-47" transform="translate(359.000000, 151.000000)">
                <g id="编组-13备份" transform="translate(1146.000000, 22.000000)">
                    <g id="编组-10" transform="translate(12.000000, 12.000000) scale(1, -1) translate(-12.000000, -12.000000) ">
                        <rect id="矩形" fill="#000000" opacity="0" x="0" y="0" width="24" height="24"></rect>
                        <path d="M8.325,9.375 L4.875,9.375 C4.425,9.375 4.125,9.675 4.125,10.125 C4.125,10.575 4.425,10.875 4.875,10.875 L10.125,10.875 C10.125,10.875 10.125,10.875 10.275,10.875 C10.275,10.875 10.425,10.875 10.425,10.875 C10.575,10.725 10.725,10.575 10.875,10.425 C10.875,10.425 10.875,10.275 10.875,10.275 C10.875,10.275 10.875,10.275 10.875,10.125 L10.875,4.875 C10.875,4.425 10.575,4.125 10.125,4.125 C9.675,4.125 9.375,4.425 9.375,4.875 L9.375,8.325 L4.275,3.225 C3.975,2.925 3.525,2.925 3.225,3.225 L3.225,3.225 C2.925,3.525 2.925,3.975 3.225,4.275 L8.325,9.375 Z M13.875,19.875 C14.325,19.875 14.625,19.575 14.625,19.125 L14.625,15.675 L19.725,20.775 C20.025,21.075 20.475,21.075 20.775,20.775 L20.775,20.775 C21.075,20.475 21.075,20.025 20.775,19.725 L15.675,14.625 L19.125,14.625 C19.575,14.625 19.875,14.325 19.875,13.875 C19.875,13.425 19.575,13.125 19.125,13.125 L13.875,13.125 C13.875,13.125 13.875,13.125 13.725,13.125 C13.725,13.125 13.575,13.125 13.575,13.125 C13.425,13.275 13.275,13.425 13.125,13.575 C13.125,13.575 13.125,13.725 13.125,13.725 C13.125,13.725 13.125,13.725 13.125,13.875 L13.125,19.125 C13.125,19.575 13.425,19.875 13.875,19.875 Z" id="形状" fill="#6F8794"></path>
                    </g>
                </g>
            </g>
        </g>
    </g>
</svg>

<svg height="24" viewBox="0 0 24 24" width="24" xmlns="http://www.w3.org/2000/svg"><g fill="none" transform="matrix(1 0 0 -1 0 24)"><path d="m0 0h24v24h-24z" fill="#000" opacity="0"/><path d="m8.325 9.375h-3.45c-.45 0-.75.3-.75.75s.3.75.75.75h5.25.15.15c.15-.15.3-.3.45-.45v-.15s0 0 0-.15v-5.25c0-.45-.3-.75-.75-.75s-.75.3-.75.75v3.45l-5.1-5.1c-.3-.3-.75-.3-1.05 0-.3.3-.3.75 0 1.05zm5.55 10.5c.45 0 .75-.3.75-.75v-3.45l5.1 5.1c.3.3.75.3 1.05 0 .3-.3.3-.75 0-1.05l-5.1-5.1h3.45c.45 0 .75-.3.75-.75s-.3-.75-.75-.75h-5.25s0 0-.15 0h-.15c-.15.15-.3.3-.45.45v.15.15 5.25c0 .45.3.75.75.75z" fill="#6f8794"/></g></svg>
